X: 7
T: Maker Tower
%%VWML:Skillerns1780-2277i-p4-0
F:http://www.vwml.org/record/Skillerns1780/2277i/p4
%R: jig
B: "Twenty Four Country Dances for the Year 1780", Thomas Skillern, ed. p.4 #1
F: http://www.vwml.org/browse/browse-collections-dance-tune-books/browse-skillerns1780#
Z: 2014 John Chambers <jc:trillian.mit.edu>
M: 6/8
L: 1/8
K: D
|:\
dfg afd | gec d2d | FGA G2B | ABG F2D |\
dfg afd | gec d2d | fgf e2d | cde A3 :|
|:\
[a2A2]a gfe | [g2A2]g fed | [f2A2]f efd | cdB A2A |\
[a2A2]a gfe | [g2A2]g fed | fed efg | fge d3 :|
W:
W:The First and Second Cu. change 
W:Sides the same Back again Cross
W:over 2 Cu. Lead up one Cu. Sett
W:Corner and turn, Lead Outsides.
W:
T: Miss Hays Reel
%R: reel
B: "Twenty Four Country Dances for the Year 1780", Thomas Skillern, ed. p.4 #2
F: http://www.vwml.org/browse/browse-collections-dance-tune-books/browse-skillerns1780#
Z: 2014 John Chambers <jc:trillian.mit.edu>
M: C
L: 1/8
K: F
c |\
AFFc (A/B/c/A/) Fc | fc (A/B/c/A/) BGGc |\
AFFc (A/B/c/A/) Fc | f2 (a/g/f/e/) fF F :|
|: c |\
f2 a/g/f gdfc | f/g/a f/g/a gddg |\
f2 a/g/f gdfc | fdcB AF F :|
W:
W:  Cast off Two Cu. up again
W:cast off and change sides, the
W:same back again, Right & Left.

